X: 1
T: String Quartet in G Major opus 17 no 5 mvt 1
C: Franz Joseph Haydn
%%abc-version 2.0
%%abcx-abcm2ps-target-version 5.9.1 (29 Sep 2008)
%%abc-creator hum2abc beta
%%abcx-conversion-date 2021/02/14 14:38:08
%%abc-copyright Copyright (c) 1994, 2000 Center for Computer Assisted Research in the Humanities
%%abc-edited-by Frances Bennion
%%abcx-initial-encoding-date 1997/04/15
%%gracespace 0 6 6
%%humdrum-veritas 1836333581
%%humdrum-veritas-data 3705298509
%%linebreak <none>
%%barnumbers 0
L: 1/8
M: 4/4
N: Derived from op17n5-01.krn
Q: "Moderato"
%%staves [1 2 3 4]
V: 1
V: 2
V: 3 clef=alto
V: 4 clef=bass
K: G
[V:1]z7 D [I:setbarnb1]|
[V:2]z7 z |
[V:3]z7 z |
[V:4]z7 z |
[V:1]G2 A/<c/F/<A/ G/<B/D zd/B/ |
[V:2]B,B, CD B,2 zB/D/ |
[V:3]D2 z2 D2 z2 |
[V:4]G,,2 z2 G,,2 z2 |
[V:1]B2 cB/c/ cA Ae/c/ |
[V:2]D2 EE EF FF |
[V:3]G,2 >G,2 G,C Cc/A/ |
[V:4]G,,G, G,G, G,,G, G,G, |
[V:1]cB Bg/e/ d2 zD |
[V:2]FG Ge/c/ B2 z2 |
[V:3]AG G2 z4 |
[V:4]G,,G, G,2 z4 |
[V:1]G2 A/<c/F/<A/ G/<B/D zd/B/ |
[V:2]B,B, CD B,2 zB/D/ |
[V:3]D2 z2 D2 z2 |
[V:4]G,,2 z2 G,,2 z2 |
[V:1]B2 cB/c/ cA Ae/c/ |
[V:2]D2 EE EF FF |
[V:3]G,2 >G,2 G,C Cc/A/ |
[V:4]G,,G, G,G, G,,G, G,G, |
[V:1]cB Bg/e/ dg/e/ dg/e/ |
[V:2]FG Ge/c/ Be/c/ Be/c/ |
[V:3]AG Gz Gz Gz |
[V:4]G,,G, G,z G,z G,z |
[V:1]d4 ^cd =cA |
[V:2]B2 _B2 A3 F |
[V:3]G4 ED DC |
[V:4]G,G,,2 G,,2 F,,2 D, |
[V:1]Gd ec B2 Az |
[V:2]G2 >A2 G2 FD |
[V:3]B,2 CE D2 D,z |
[V:4]E,B,, C,A,, D,2 D,,z |
[V:1]zB, CC B,d dd |
[V:2]G2 A/<c/F/<A/ G2 Fc |
[V:3]z7 D |
[V:4]z2 >D,2 G,2 A,/<C/F,//A,3// |
[V:1](3:2:11d4- d/b/f/g/ b/f/g/b/ f/g/|
[V:2]BG FD D2 z2 |
[V:3]G2 A/<c/F/<A/ G2 z2 |
[V:4]G,/<B,/D, zC, B,,2 z2 |
[V:1]^d2 e=d d/c/c2 B |
[V:2]G4 G4 |
[V:3]C2 >D2 E2 D2 |
[V:4]C,2 >D,2 E,2 D,2 |
[V:1]B/A/A2 F/D/ G2 z2 |
[V:2]E2 C2 B,2 z2 |
[V:3]C2 F,2 G,2 z2 |
[V:4]C,2 D,2 G,2 z2 |
[V:1]E4 ^D2 B/ba/- |
[V:2]E4 ^D2 zD |
[V:3]E4 ^D2 z2 |
[V:4]E,4 ^D,2 z2 |
[V:1]a/gf ef/ ^d^c/B/ ^A/B/=c/B/ |
[V:2]EF GA B2 z2 |
[V:3]z8 |
[V:4]z8 |
[V:1]^G/A/B/A/ F/=G/A/G/ F/E/^A/B/ =A/G/F/E/ |
[V:2]z8 |
[V:3]z8 |
[V:4]z8 |
[V:1]D4 ^C2 A/ag/- |
[V:2]D4 ^C2 zC |
[V:3]D4 ^C2 z2 |
[V:4]D,4 ^C,2 z2 |
[V:1]g/fe de/ ^cB/A/ Ac |
[V:2]DE FG A2 ^CE |
[V:3]z6 A2- |
[V:4]z6 A,,/A,G,/- |
[V:1]de f^g2 <a2 b |
[V:2]A^c dd2 <c2 d |
[V:3]AG FD E2 z2 |
[V:4]G,/F,E, D,B,,/ A,,/A,,/A,,/A,,/ A,,/A,,/A,,/A,,/ |
[V:1]^ga f=g ^ef ^d=e |
[V:2]B^c ^de c=d AB |
[V:3]z6 FG |
[V:4]A,,/A,,/A,,/A,,/ A,,/A,,/A,,/A,,/ A,,/A,,/A,,/A,,/ A,,/A,,/A,,/A,,/ |
[V:1]^cd ^GA =G4 |
[V:2]GA DE E2 A,2- |
[V:3]EF B,^C D2 E2 |
[V:4]A,,/A,,/A,,/A,,/ A,,/A,,/A,,/A,,/ _B,,/B,,/B,,/B,,/ ^C,/C,/C,/C,/ |
[V:1]FF/<A/ G/<B/E/<^c/ F/<d/c/<e/ d/<f/e//g3// |
[V:2]A,F GG F^c de |
[V:3]D/D/D/D/ D/D/D/D/ D/D/D/D/ D/D/D/D/ |
[V:4]D,/D,/D,/D,/ D,/D,/D,/D,/ D,/D,/D,/D,/ D,/D,/D,/D,/ |
[V:1]f/<a/a/<d'/ zB/<b/ zG/<g/ zF//f3// |
[V:2]f2 zD z^c zd |
[V:3]D2 zG zE zD |
[V:4]D,2 zG, zA, zB, |
[V:1]ze ee e2 d/^c/B/A/ |
[V:2]zB, B,B, B,2 G2 |
[V:3]zD DD DG E2 |
[V:4]zG, G,G, G,2 A,2 |
[V:1]dz ^c/d/g/f/ e^d/e/ d/e/d/e/ |
[V:2]F2 z2 >B,2 B,B, |
[V:3]D2 z2 >D2 DD |
[V:4]B,2 z2 >G,2 G,G, |
[V:1]^d/e/f/e/ =d/^c/B/A/ dz (3D/[f/a/][a/f/](3[a/f/][a/f/][a/f/]|
[V:2]B,2 G2 F2 zd |
[V:3]DG E2 D2 z2 |
[V:4]G,2 A,2 D,2 z2 |
[V:1](3[a/g/][a/g/][a/g/](3[a/e/][e/a/][a/e/](3[^c'/A/][c'/A/][c'/A/](3[a/g/][a/g/][a/g/] (3[d'/f/][d'/f/][d'/f/](3[a/f/][a/f/][a/f/](3D/[a/f/][a/f/](3[a/f/][a/f/] [a/f/]|
[V:2]eg E^c d2 zd |
[V:3]z2 AE F2 z2 |
[V:4]z2 A,,A, D,2 z2 |
[V:1](3[a/g/][a/g/][a/g/](3[a/e/][a/e/][a/e/](3[^c'/A/][c'/A/][c'/A/](3[a/g/][a/g/][a/g/] (3[d'/f/][d'/f/][d'/f/](3[a/f/][a/f/][a/f/](3[=c'/d/][c'/d/][c'/d/](3[a/f/][a/f/][a/f/] |
[V:2]eg E^c dz az |
[V:3]z2 AE Fz Fz |
[V:4]z2 A,,A, D,z F,z |
[V:1](3b2>>^c'2 ^a/(3b/c'/a/ (3b/g'/g'/(3g'/g'/g'/ (3g'/f'/e'/(3d'/c'/b/ |
[V:2]zd dd d2 zd |
[V:3]zG GG G2 zG |
[V:4]zG, G,G, G,2 zG, |
[V:1](3a/f'/e'/(3d'/^c'/b/ (3a/b/a/g (3f/f'/e'/(3d'/c'/b/ (3a/b/a/g |
[V:2]d2 >^c2 d3 c |
[V:3]FA BA AA BA |
[V:4]F,2 E,A, D,F, E,A, |
[V:1](3f/f'/d'/(3a/d'/a/ (3f/a/f/(3d/f/d/ A[cA] [cA][Ac] |
[V:2]d2 z6 |
[V:3]A2 z6 |
[V:4]D,2 z6 |
[V:1][c2A2] [C2D2] [B,D]d' bg |
[V:2]z2 A,2 B,2 z2 |
[V:3]z2 D,2- D,2 z2 |
[V:4]z2 F,2 G,2 z2 |
[V:1](3f/e/d/(3^c/B/A/ e2 d2 z[^c'Ae] |
[V:2]dd ^cc (3D/[A/F/][A/F/](3[A/F/][A/F/][A/F/](3[A/G/][A/G/][A/G/](3[A/E/][A/E/] [A/E/]|
[V:3]A,A, A,A, DD EG |
[V:4]A,A, A,A, D,2 zA, |
[V:1][d'2f2A2] z[A^c'e] [d'2f2A2] zA |
[V:2](3D/[A/F/][A/F/](3[A/F/][A/F/][A/F/](3[A/G/][A/G/][A/G/](3[A/E/][A/E/] [A/E/][A2F2] z2 |
[V:3]FD EG F2 z2 |
[V:4]D,2 zA, D,2 z2 |
[V:1]^c/d/e/d/ g/f/e/f/ e/d/c/d/ c/B/A/G/ |
[V:2]z8 |
[V:3]z8 |
[V:4]z8 |
[V:1]F4 G2 zB |
[V:2]F4 G2 z2 |
[V:3]F4 G2 z2 |
[V:4]F,4 G,2 z2 |
[V:1]^d/e/f/e/ g/f/a/g/ b2 a^c |
[V:2]z7 E |
[V:3]z7 G |
[V:4]z7 A, |
[V:1]d2 e/<g/^c/<e/ d/<f/A za/f/ |
[V:2]DF GA F2 zf/A/ |
[V:3]F2 z6 |
[V:4]D,2 z6 |
[V:1]f2 gf/g/ ge eb/g/ |
[V:2]A2 BB B^c cc |
[V:3]D2 >D2 DG GG/E/ |
[V:4]D,,D, D,D, D,,D, D,D, |
[V:1]gf fd'/b/ a2 z2 |
[V:2]^cd db/g/ f2 zA |
[V:3]ED D2 z4 |
[V:4]D,,D, D,2 z4 |
[V:1]z8 |
[V:2]d2 e/<g/^c/<e/ d/<f/A z2 |
[V:3]zF GA D2 z2 |
[V:4]z8 |
[V:1]C4 B,2 B/ba/- |
[V:2]C4 B,2 z^D |
[V:3]C4 B,2 z2 |
[V:4]C,4 B,,2 z2 |
[V:1]a/gf ef/ ^d^c/B/ Bd |
[V:2]EF GA B2 zF |
[V:3]z7 B, |
[V:4]z6 B,,/B,A,/- |
[V:1]ef g^g ab c'c |
[V:2]BA Ge ed cE |
[V:3]B,^D EB, C^G AA, |
[V:4]A,/G,F, E,D, C,B,, A,,G,/- |
[V:1]de ff ga bB |
[V:2]AG Fd dc BD |
[V:3]A,^C DA, B,F GG, |
[V:4]G,/F,E, D,C, B,,A,, G,,F,/- |
[V:1]cd ee fg aA |
[V:2]GF Ec cB AC |
[V:3]G,B, CG, A,E FF, |
[V:4]F,/E,D, C,B,, A,,G,, F,,E,/- |
[V:1]B^c ^dd ef gB- |
[V:2]FE ^DB BA GB, |
[V:3]F,^A, B,F, G,^D EB, |
[V:4]E,/^D,^C, B,,A,, G,,F,, E,,B,/ |
[V:1]B/cd e^G AB cE/ |
[V:2]CD E^G, A,B, CE |
[V:3]CD E^G, A,B, CE |
[V:4]CD/E/ E^G, A,B, CE, |
[V:1]^D4 c3 E |
[V:2]^D4 c3 E |
[V:3]^D4 c3 E |
[V:4]^D,4 C3 E, |
[V:1]=F4 cg gg |
[V:2]=F4 ce ee |
[V:3]=F4 c4- |
[V:4]=F,4 C4- |
[V:1]gC CC ^Ag gg |
[V:2]eC CC ^Ae ee |
[V:3]cC CC ^A4- |
[V:4]CC, C,C, ^A,4- |
[V:1]g^A, A,A, B,g gg |
[V:2]e^A, A,A, B,e ee |
[V:3]A^A, A,A, B,4- |
[V:4]A,^A,, A,,A,, B,,4- |
[V:1]gf bc' ^ab ^g=a |
[V:2]e^d ga fg ^ef |
[V:3]B,2 z6 |
[V:4]B,,/B,,/B,,/B,,/ B,,/B,,/B,,/B,,/ B,,/B,,/B,,/B,,/ B,,/B,,/B,,/B,,/ |
[V:1]fg ^de ^A2 =A2 |
[V:2]^de AB E2 F2 |
[V:3]AG FG ^C2 ^D2 |
[V:4]B,,/B,,/B,,/B,,/ B,,/B,,/B,,/B,,/ B,,/B,,/B,,/B,,/ B,,/B,,/B,,/B,,/ |
[V:1]GG/<B/ A/<c/F/<^d/ G/<e/d/<f/ e/<g/f//a3// |
[V:2]EG AA G^d ef |
[V:3]B,/E/E/E/ E/E/E/E/ E/E/E/E/ E/E/E/E/ |
[V:4]E,/E,/E,/E,/ E,/E,/E,/E,/ E,/E,/E,/E,/ E,/E,/E,/E,/ |
[V:1]g/<b/b/<e'/ zc/<c'/ zA/<a/ zG//g3// |
[V:2]g2 zE z^d ze |
[V:3]E2 zA zF zE |
[V:4]E,2 zA, zB, zC |
[V:1]zf ff f2 ^d^c/B/ |
[V:2]zC CC C2 A2 |
[V:3]zE EE EA F2 |
[V:4]zA, A,A, A,2 B,2 |
[V:1]ez ^d/e/a/g/ f^e/f/ e/f/e/f/ |
[V:2]G2 z2 >C2 CC |
[V:3]E2 z2 >E2 EE |
[V:4]C2 z2 >A,2 A,A, |
[V:1]^e/f/a/f/ =e/^d/^c/B/ ez d/e/f/e/ |
[V:2]C2 A2 G2 z2 |
[V:3]EA F2 E2 z2 |
[V:4]A,2 B,2 E,2 z2 |
[V:1]g/f/a/g/ b/a/g/f/ e/^d/f/e/ g/f/a/g/ |
[V:2]z6 E2 |
[V:3]z6 B,2 |
[V:4]z6 G,2 |
[V:1]f/e/^d/e/ f/e/g/f/ e/=d/c/B/ d/c/e/d/ |
[V:2]z6 E2 |
[V:3]z6 C2 |
[V:4]z6 A,2 |
[V:1]=f/e/d/c/ B/c/d/c/ B/A/^G/A/ B/A/c/B/ |
[V:2]z6 A,2 |
[V:3]z6 E2 |
[V:4]z6 C,2 |
[V:1]d/c/e/B/ cB/A/ G/F/A/G/ B/A/c/B/ |
[V:2]z6 C2 |
[V:3]z6 A,2 |
[V:4]z6 D,2 |
[V:1]d/c/b/a/ g/f/e/d/ ^c/d/e/d/ f/e/g/f/ |
[V:2]z6 D2 |
[V:3]z6 A,2 |
[V:4]z6 F,2 |
[V:1]a/g/f/e/ d/^c/e/d/ f/e/g/f/ a/g/b/a/ |
[V:2]z8 |
[V:3]z8 |
[V:4]z8 |
[V:1]c'b d'c' ba gf |
[V:2]D2 z6 |
[V:3]A,2 z6 |
[V:4]F,2 z6 |
[V:1]ed ^c/d/e/d/ d4- |
[V:2]z6 D2 |
[V:3]z6 A,2 |
[V:4]z6 F,2 |
[V:1]dd eB dc B/c/d/c/ |
[V:2]z8 |
[V:3]z8 |
[V:4]z8 |
[V:1]c7 D |
[V:2]z8 |
[V:3]z8 |
[V:4]z8 |
[V:1]G2 A/<c/F/<A/ G/<B/D zd/B/ |
[V:2]zB, CC B,2 zB/D/ |
[V:3]z2 >F2 G2 z2 |
[V:4]z2 >D,2 G,2 z2 |
[V:1]B2 cB/c/ cA Ae/c/ |
[V:2]D2 EE EF FF |
[V:3]G,2 >G,2 G,C Cc/A/ |
[V:4]G,,G, G,G, G,,G, G,G, |
[V:1]cB Bg/e/ d2 zD |
[V:2]FG Ge/c/ B2 z2 |
[V:3]AG G2 z4 |
[V:4]G,,G, G,2 z4 |
[V:1]G2 A/<c/F/<A/ G/<_B/D z2 |
[V:2]z_B, CD G,2 z2 |
[V:3]z8 |
[V:4]z8 |
[V:1]_E4 B,2 gg |
[V:2]_E4 B,2 =ff |
[V:3]_E4 B,2 BB |
[V:4]_E,4 B,,2 z2 |
[V:1]gg gg gg gg |
[V:2]_ee BB cc =ff |
[V:3]cc DD _EE DD |
[V:4]z6 B,,B,, |
[V:1]gg gg g^c cc |
[V:2]_ee dd ^c_B AG |
[V:3]CC DD _E4 |
[V:4]C,C, D,D, _E,4 |
[V:1]de fg ab c'a |
[V:2]FG AB cd ef |
[V:3]D2 cB AG Fc |
[V:4]D,/D,/D,/D,/ D,/D,/D,/D,/ D,/D,/D,/D,/ D,/D,/D,/D,/ |
[V:1]bB/<d/ c/<e/A/<f/ B/<g/f/<a/ g/<b/a//c'3// |
[V:2]gB cc Bf ga |
[V:3]B/G/G/G/ G/G/G/G/ G/G/G/G/ G/G/G/G/ |
[V:4]G,/G,/G,/G,/ G,/G,/G,/G,/ G,/G,/G,/G,/ G,/G,/G,/G,/ |
[V:1]b/<d'/d/<g/ zE/<e/ zC/<c/ zB,//B3// |
[V:2]b2 zG zF zG |
[V:3]G2 zc zA zG |
[V:4]G,,2 zC, zD, zE, |
[V:1]zA AA A2 G/F/E/D/ |
[V:2]zG, G,G, G,C A,2 |
[V:3]zE, E,E, E,2 C2 |
[V:4]zC, C,C, C,2 D,2 |
[V:1]Gz F/G/c/B/ A^G/A/ G/A/G/A/ |
[V:2]G,2 z2 >G,2 G,G, |
[V:3]B,2 z2 >E,2 E,E, |
[V:4]E,2 z2 >C,2 C,C, |
[V:1]^G/A/B/A/ =G/F/E/D/ Gz (3G,/[d/B/][d/B/](3[d/B/][d/B/][d/B/]|
[V:2]G,C A,2 G,2 zG |
[V:3]E,2 C2 B,2 z2 |
[V:4]C,2 D,2 G,,2 z2 |
[V:1](3[d/c/][d/c/][d/c/](3[d/A/][d/A/][d/A/](3[f/D/][f/D/][f/D/](3[d/c/][d/c/][d/c/] (3[g/B/][g/B/][g/B/](3[d/B/][d/B/][d/B/](3G,/[d/B/][d/B/](3[d/B/][d/B/] [d/B/]|
[V:2]Ac A,F G2 zG |
[V:3]z2 DA, B,2 z2 |
[V:4]z2 D,,D, G,,2 z2 |
[V:1](3[d/c/][d/c/][d/c/](3[d/A/][d/A/][d/A/](3[f/D/][f/D/][f/D/](3[d/c/][d/c/][d/c/] (3[g/B/][g/B/][g/B/](3[d/B/][d/B/][d/B/](3[=f/G/][f/G/][f/G/](3[d/B/][d/B/][d/B/] |
[V:2]Ac A,F Gz dz |
[V:3]z2 DA, B,z B,z |
[V:4]z2 D,,D, G,,z B,,z |
[V:1](3e2>>f2 ^d/(3e/f/d/ (3e/c'/c'/(3c'/c'/c'/ (3c'/b/a/(3g/f/e/ |
[V:2]zG GG G2 zG |
[V:3]zC CC C2 zC |
[V:4]zC, C,C, C,2 zC, |
[V:1](3d/b/a/(3g/f/e/ (3d/e/d/c (3B/b/a/(3g/f/e/ (3d/e/d/c |
[V:2]G2 >F2 G3 F |
[V:3]B,D ED DD ED |
[V:4]B,,2 A,,D, G,,B,, A,,D, |
[V:1](3B/b/g/(3d/g/d/ (3B/d/B/(3G/B/G/ D[=FD] [DF][FD] |
[V:2]G2 z6 |
[V:3]D2 z6 |
[V:4]G,,2 z6 |
[V:1][D2=F2] [D2G,2] Eg ec |
[V:2]z2 =F2 E2 z2 |
[V:3]z2 G,2- G,2 z2 |
[V:4]z2 B,,2 C,2 z2 |
[V:1](3B/A/G/(3F/E/D/ A2 G2 z[DfA] |
[V:2]GG FF (3G,/[D/B,/][D/B,/](3[D/B,/][D/B,/][D/B,/](3[D/C/][D/C/][D/C/](3[D/A,/][D/A,/] [D/A,/]|
[V:3]DD DD G,G, A,C |
[V:4]D,D, D,D, G,,2 zD, |
[V:1][g2B2D2] z[fAD] [g2B2D2] z2 |]
[V:2](3G,/[D/B,/][D/B,/](3[D/B,/][D/B,/][D/B,/](3[D/C/][D/C/][D/C/](3[D/A,/][D/A,/] [D/A,/][D2B,2] z2 |]
[V:3]B,G, A,C B,2 z2 |]
[V:4]G,,2 zD, G,,2 z2 |]

